X: 530
T: Shuzhuang tai
%%abc-version 2.0
%%abcx-abcm2ps-target-version 5.9.1 (29 Sep 2008)
%%abc-creator hum2abc beta
%%abcx-conversion-date 2013/10/02 07:52:30
%%abc-edited-by Helmut Schaffrath
%%humdrum-veritas 2838610320
%%humdrum-veritas-data 326180507
%%continueall 1
%%barnumbers 0
L: 1/8
M: 2/4
K: F
F2D C [I:setbarnb 1]| 
F2F2 | 
c d c A | 
G FG2 | 
G Ac2 | 
d c A G | 
F A F D | 
C4 | 
A GF2 | 
G Ac2 | 
G A G F | 
D CD2 | 
G Ac2 | 
f d c c | 
F F F A | 
G2F D | 
C4 |]  



